X: 10531
M: C|
L: 1/8
K: D
(uag) |\
fadf AdFA | DFAd f2(g>f) |\
gb eg ce AF | GABG E2(ag) |\
fa df Ad FA | DFAd f2(g>f) |
gbge cABc | d2f2 d2 :: uF2 |\
{A}GFGA Bcde | f3(e dc)dB |\
{A}GFGA Bcde | f3(e dc)dB |\
(3fgf (3efe (3ded (3cdc | (3BcB (3ABA G2(gf) |
(3efe (3ded (3cdc (3BcB | (3ABA (3GAG F2(ag) |\
(3fgf (3efe (3ded (3cdc | (3BcB (3ABA (3GAG (3FGF |\
E2(ed) cABc | d2f2 d2 :|


